X: 28385
T: Muiñeiras Do Cuarto Baleiro
R: jig
M: 6/8
K: Amajor
|:~A3 BAG|~A3 FAE|~A3 BAG|ABc BAG|
~A3 BAG|~A3 FAE|~A3 BAG|1 ABc dcB:|2 ABc Bce||
f3 fga|f2f fed|e2e edc|B2B BAB|
c2c fga|f2f fed|e2e edc|B2B BAB|
c2c fga|f2f fed|e2e edc|B2B BAB|
c2c fga|f2f fed|e2e edc|B2B BAB||

